frontend/public/svg/hand gestures/3-scroll-up.svg

<svg width="113" height="159" viewBox="0 0 113 159" fill="none" xmlns="http://www.w3.org/2000/svg">
<g clip-path="url(#clip0)">
<path d="M110.129 81.66C109.537 80.0749 108.621 78.6303 107.438 77.4207C106.256 76.2104 104.833 75.2613 103.261 74.6339C101.646 74.0523 99.9266 73.8148 98.2142 73.9375C96.5018 74.0596 94.8334 74.5387 93.3173 75.344C93.0095 75.4969 92.6951 75.6354 92.2967 75.8113L92.0611 75.9157L92.1267 74.416C92.1923 73.0376 92.2461 71.7598 92.296 70.4779C92.3558 68.9349 92.4273 67.3931 92.4929 65.8475C92.8736 57.4188 93.2674 48.7033 91.9587 40.1597C91.4717 36.352 90.4602 32.6299 88.9533 29.0991C87.4437 25.7793 85.0258 23.6305 82.1412 23.0464C79.1312 22.4373 75.8968 23.5531 73.0351 26.1909C72.9052 26.3041 72.7667 26.4064 72.6197 26.4967C72.2626 25.8404 71.9128 25.1841 71.5649 24.5277C70.673 22.8547 69.7508 21.1239 68.7427 19.4877C66.9738 16.6149 64.1484 15.3974 60.5667 15.9697C59.0017 16.1939 57.5131 16.7896 56.2255 17.7069C54.9379 18.6243 53.8889 19.8367 53.1659 21.2427C52.195 23.1388 51.3336 25.0892 50.5864 27.0841C50.3239 27.7503 50.0613 28.4165 49.7857 29.0794C49.6662 28.8878 49.5464 28.6931 49.4261 28.4953C48.8803 27.5674 48.2829 26.6707 47.6369 25.8095C45.0988 22.5469 41.7541 21.7973 37.9657 23.6403C36.6988 24.2345 35.5758 25.096 34.6738 26.1657C33.7718 27.2354 33.1123 28.4879 32.7406 29.8368C32.2826 31.3659 31.9965 32.9412 31.8873 34.5336C31.8174 35.6139 31.7443 36.6946 31.6681 37.7759C31.3761 42.0047 31.0735 46.3772 31.0807 50.6834C31.0951 59.5315 31.2396 68.5647 31.3794 77.3006C31.4341 80.7214 31.4866 84.1547 31.5369 87.5998C31.4234 87.5283 31.3151 87.4489 31.2128 87.3622C25.8826 82.7068 19.3697 80.6229 11.2935 80.9911C6.4556 81.2123 3.32548 83.2581 1.99049 87.0721C0.486818 91.3678 1.22396 95.1648 4.18207 98.3611C4.97561 99.1875 5.81214 99.9718 6.68805 100.711C7.01622 100.997 7.34431 101.282 7.66329 101.573C12.9173 106.31 16.5311 110.852 19.0357 115.865C20.7908 119.377 22.6494 122.908 24.4465 126.323C25.9357 129.153 27.4767 132.08 28.9483 134.978C33.1732 143.583 40.3583 150.377 49.1859 154.113C54.9581 156.7 61.2088 158.049 67.5344 158.07C72.6544 158.046 77.7371 157.191 82.5829 155.537C91.9482 152.407 98.9454 146.687 103.38 138.538C106.818 132.179 109.118 125.268 110.176 118.117C111.346 110.635 112.576 101.921 112.356 93.2798C112.319 89.3043 111.564 85.3676 110.129 81.66ZM8.19958 88.5443C8.91302 86.4348 10.8991 86.0817 12.8346 86.0817C12.9534 86.0817 13.0722 86.0817 13.1897 86.0817C20.3602 86.2248 25.6948 88.8889 29.0441 94.0017C29.6716 95.0959 30.1343 96.2773 30.4171 97.5066C30.5208 97.8715 30.6246 98.2345 30.7355 98.5915C31.1536 99.937 31.8953 101.504 33.9352 101.672C35.5636 101.803 36.959 100.563 37.4952 98.5068C37.7201 97.609 37.8217 96.6849 37.7971 95.7601C37.6383 87.0846 37.4689 79.1547 37.2864 71.5261C37.2444 69.7861 37.1663 68.0186 37.0895 66.3095C36.951 63.1683 36.808 59.9201 36.8828 56.7362C37.058 49.1883 37.5038 41.517 37.933 34.0984L37.9644 33.553C38.1049 31.1449 38.7054 28.5832 42.0711 27.7707C44.2469 29.4621 45.5543 31.8295 46.0669 35.0022C46.9411 40.4111 47.5234 45.3067 47.847 49.9779C48.2598 55.9295 48.5787 61.9889 48.8879 67.848C49.0848 71.6344 49.2869 75.4202 49.512 79.2026C49.5382 79.645 49.6866 81.1441 50.4965 81.8746C51.3166 82.5342 52.3474 82.8748 53.3989 82.8341C53.6982 82.819 53.9913 82.7436 54.2605 82.6123C54.5297 82.4804 54.7694 82.2953 54.965 82.0682C55.1604 81.8411 55.3077 81.5766 55.3978 81.2911C55.4878 81.0049 55.5186 80.7037 55.4886 80.4057C55.4847 79.5525 55.5045 78.6913 55.5248 77.8335C55.6055 75.9866 55.5711 74.1364 55.4218 72.2934C54.4944 63.232 54.9768 54.0235 55.4428 45.121L55.6357 41.3267C55.7275 38.3471 55.976 35.3744 56.38 32.4208C56.8511 29.9295 57.5897 27.4964 58.5833 25.1637C59.0637 24.2186 59.7719 23.4081 60.6441 22.8055C60.8528 22.5884 61.1064 22.4194 61.387 22.3101C61.6676 22.2009 61.9687 22.1541 62.2693 22.1728C62.6723 22.2686 63.03 22.6598 63.3627 23.3673L63.7992 24.2862C64.8021 26.3865 65.8384 28.5524 66.2053 30.7701C67.1852 36.2768 67.8021 41.8418 68.0516 47.4293C68.511 60.5561 68.1953 70.5948 67.0277 79.9837C66.9942 80.2987 66.9771 80.6151 66.9765 80.9321C66.9765 81.0738 66.9712 81.2156 66.9647 81.3561L66.9417 81.8024C66.8583 83.2634 66.7645 84.92 68.8372 85.619C69.8991 85.9124 71.0294 85.829 72.0368 85.3847C73.045 84.9397 73.868 84.1606 74.3668 83.1787C74.993 81.7 75.352 80.1228 75.4281 78.5187C76.0293 63.7006 75.8436 51.7172 74.8453 40.8069C74.5401 37.4766 75.3297 34.4063 77.3295 31.1429C77.6098 30.5903 78.0417 30.1292 78.5753 29.814C79.1089 29.4988 79.7212 29.3425 80.3402 29.3636C81.5295 29.4148 82.3007 30.1282 82.8402 31.6779C84.7114 36.9435 85.6559 42.4935 85.6322 48.0817C85.5758 53.7676 85.3874 59.5486 85.2049 65.1399C85.0888 68.7038 84.9687 72.3885 84.884 76.0141C84.8072 79.3096 84.9358 82.6077 85.0566 85.1136C85.1603 87.2493 86.2774 88.4485 88.6803 89.0031C90.6972 89.4678 91.7394 88.2811 92.5658 86.929C92.8191 86.5149 93.0659 86.0935 93.3127 85.6721C93.9867 84.4441 94.7599 83.2732 95.625 82.1712C97.0151 80.5055 98.6054 79.6883 100.109 79.8741C101.6 80.0578 102.931 81.2222 103.865 83.1557C106.239 88.0783 107.106 93.7681 106.441 100.077C105.781 106.347 104.806 113.11 103.374 121.36C102.256 127.296 99.8012 132.9 96.196 137.746C92.6767 142.64 87.5172 146.089 80.4229 148.29C67.4694 152.308 55.3607 150.168 43.4055 141.749C42.1357 140.896 41.0283 139.824 40.135 138.583C38.1055 135.639 36.2284 132.592 34.5108 129.455C31.9248 124.664 29.4733 119.826 27.2254 115.07C22.9073 105.942 17.5524 98.9892 10.8532 93.8199C10.7772 93.7628 10.7055 93.7005 10.6391 93.6329C10.4349 93.4176 10.2217 93.2049 10.0077 92.9923C8.73574 91.7256 7.53202 90.5277 8.20214 88.5436L8.19958 88.5443Z" fill="black"/>
<path d="M1.76655 19.0859C3.44743 20.4104 4.98783 18.9271 5.49386 18.4401C5.96249 17.9892 6.40161 17.5002 6.82561 17.027C7.07173 16.7533 7.31787 16.479 7.5699 16.2112C8.71258 14.9983 9.85907 13.7887 11.1652 12.4097L12.6676 10.8234C12.688 10.9691 12.7077 11.099 12.7248 11.2171C12.7803 11.5142 12.8112 11.8154 12.8173 12.1176C12.7472 15.1499 12.6732 18.1822 12.5948 21.2144C12.4806 25.8088 12.3713 30.4032 12.2667 34.9975C12.1951 38.3901 12.1806 41.7914 12.2233 45.1052C12.2482 47.0808 13.0424 48.2162 14.5862 48.4813C14.7779 48.5153 14.9723 48.5327 15.167 48.5333C16.5237 48.5333 17.5205 47.6399 17.8848 46.0542C18.3139 44.4083 18.5468 42.7174 18.5787 41.0169C18.5038 35.623 18.3699 30.1406 18.2399 24.8381C18.1717 22.0421 18.106 19.2461 18.0429 16.4502C18.0134 15.0823 18.0206 13.6935 18.0285 12.2246C18.0285 11.6943 18.0344 11.1496 18.0357 10.5838C18.5956 10.9474 19.1247 11.2959 19.634 11.6339C21.0983 12.5974 22.3638 13.4296 23.6987 14.1877C25.5752 15.2536 27.1773 15.2248 28.4565 14.1018C28.6216 13.9521 28.7538 13.7698 28.845 13.5665C28.9361 13.3631 28.9842 13.1432 28.9861 12.9204C29.0275 11.9208 28.3954 10.6467 27.2967 9.51128C26.8855 9.10376 26.4428 8.72919 25.9728 8.39098L24.3085 7.1439C22.3828 5.69995 20.392 4.20153 18.4052 2.76677C15.5266 0.687497 13.931 0.858795 11.5754 3.49858C9.16467 6.20073 6.63192 9.09063 3.36205 12.8711C2.70833 13.6564 2.10144 14.4796 1.54462 15.3363C0.238507 17.26 0.944815 18.4381 1.76655 19.0859Z" fill="black"/>
</g>
<defs>
<clipPath id="clip0">
<rect width="112.234" height="157.521" fill="white" transform="translate(0.736206 0.791138)"/>
</clipPath>
</defs>
</svg>

<svg xmlns="http://www.w3.org/2000/svg" width="113" height="159" fill="none" viewBox="0 0 113 159"><g fill="#000" clip-path="url(#a)"><path d="M110.129 81.66a12.13 12.13 0 0 0-6.868-7.026 12.3 12.3 0 0 0-9.944.71c-.307.153-.622.291-1.02.467l-.236.105.066-1.5c.065-1.378.12-2.656.169-3.938.06-1.543.131-3.085.197-4.63.38-8.43.774-17.145-.534-25.688a41.6 41.6 0 0 0-3.006-11.06c-1.51-3.32-3.927-5.47-6.812-6.054-3.01-.609-6.244.507-9.106 3.145q-.195.17-.415.306-.534-.985-1.055-1.97c-.892-1.672-1.814-3.403-2.822-5.04-1.77-2.872-4.595-4.09-8.176-3.517a9.9 9.9 0 0 0-7.401 5.273 56 56 0 0 0-2.58 5.841c-.262.666-.525 1.332-.8 1.995l-.36-.584a29 29 0 0 0-1.79-2.686c-2.537-3.262-5.882-4.012-9.67-2.169a9.69 9.69 0 0 0-5.225 6.197 21.5 21.5 0 0 0-.854 4.697q-.105 1.62-.219 3.242c-.292 4.229-.594 8.601-.587 12.907.014 8.849.159 17.882.298 26.618q.083 5.13.158 10.299a3 3 0 0 1-.324-.238c-5.33-4.655-11.843-6.74-19.92-6.37-4.837.22-7.968 2.266-9.303 6.08-1.503 4.296-.766 8.093 2.192 11.29q1.192 1.24 2.506 2.349c.328.286.656.571.975.862 5.254 4.737 8.868 9.279 11.373 14.292 1.755 3.512 3.613 7.043 5.41 10.458 1.49 2.83 3.03 5.757 4.502 8.655a39.85 39.85 0 0 0 20.238 19.135 45.2 45.2 0 0 0 18.348 3.957 47.3 47.3 0 0 0 15.049-2.533c9.365-3.13 16.362-8.85 20.797-16.999a62 62 0 0 0 6.796-20.421c1.17-7.482 2.4-16.196 2.18-24.837a33 33 0 0 0-2.227-11.62M8.199 88.544c.714-2.11 2.7-2.462 4.636-2.462h.355c7.17.143 12.505 2.807 15.854 7.92a12.8 12.8 0 0 1 1.373 3.505q.154.547.318 1.084c.419 1.346 1.16 2.913 3.2 3.081 1.629.131 3.024-1.109 3.56-3.165.225-.898.327-1.822.302-2.747-.159-8.675-.328-16.605-.51-24.234-.043-1.74-.12-3.507-.197-5.216-.139-3.142-.282-6.39-.207-9.574.175-7.548.62-15.219 1.05-22.638l.031-.545c.14-2.408.741-4.97 4.107-5.782 2.176 1.691 3.483 4.058 3.996 7.231.874 5.41 1.456 10.305 1.78 14.976.413 5.951.732 12.01 1.04 17.87.198 3.786.4 7.572.625 11.355.026.442.175 1.941.984 2.672.82.66 1.851 1 2.903.96a2.22 2.22 0 0 0 1.566-.767 2.2 2.2 0 0 0 .524-1.662c-.004-.854.016-1.715.036-2.573a45 45 0 0 0-.103-5.54c-.928-9.061-.445-18.27.02-27.172l.194-3.794c.091-2.98.34-5.953.744-8.906a35.2 35.2 0 0 1 2.203-7.257 6.4 6.4 0 0 1 2.061-2.359 2.08 2.08 0 0 1 1.625-.632c.403.096.761.487 1.094 1.194l.436.92c1.003 2.1 2.04 4.265 2.406 6.483a128 128 0 0 1 1.847 16.66c.459 13.126.143 23.165-1.024 32.554a9 9 0 0 0-.052.948q-.001.214-.011.424l-.023.446c-.084 1.461-.177 3.118 1.895 3.817a4.78 4.78 0 0 0 5.53-2.44 13.6 13.6 0 0 0 1.061-4.66c.601-14.818.416-26.802-.583-37.712-.305-3.33.485-6.4 2.484-9.664a3.25 3.25 0 0 1 3.011-1.78c1.19.052 1.96.765 2.5 2.315a48.4 48.4 0 0 1 2.792 16.404c-.056 5.686-.245 11.467-.427 17.058-.116 3.564-.236 7.248-.321 10.874-.077 3.296.052 6.594.173 9.1.103 2.135 1.22 3.334 3.623 3.89 2.017.464 3.06-.723 3.886-2.075q.378-.622.747-1.257a26 26 0 0 1 2.312-3.5c1.39-1.666 2.98-2.484 4.484-2.298 1.491.184 2.822 1.348 3.756 3.282 2.374 4.922 3.241 10.612 2.576 16.921-.66 6.27-1.635 13.033-3.067 21.283a39.8 39.8 0 0 1-7.178 16.386c-3.52 4.894-8.679 8.343-15.773 10.544-12.954 4.018-25.062 1.878-37.017-6.541a12.9 12.9 0 0 1-3.271-3.166 105 105 0 0 1-5.624-9.128 303 303 0 0 1-7.286-14.385c-4.318-9.128-9.673-16.08-16.372-21.25a2 2 0 0 1-.214-.187 30 30 0 0 0-.631-.64c-1.272-1.267-2.476-2.465-1.806-4.45zM1.767 19.086c1.68 1.324 3.22-.159 3.727-.646.468-.45.908-.94 1.332-1.413q.367-.413.744-.816c1.143-1.213 2.29-2.422 3.595-3.801l1.503-1.587q.03.218.057.394.083.446.092.9-.105 4.55-.222 9.097a6604 6604 0 0 0-.328 13.784 299 299 0 0 0-.044 10.107c.025 1.976.82 3.111 2.363 3.376q.288.051.581.052c1.357 0 2.353-.893 2.718-2.479.429-1.646.662-3.337.694-5.037-.075-5.394-.21-10.876-.34-16.179q-.101-4.194-.196-8.388a158 158 0 0 1-.014-4.225q.002-.793.007-1.641c.56.363 1.089.712 1.598 1.05 1.464.963 2.73 1.796 4.065 2.554 1.876 1.066 3.478 1.037 4.757-.086a1.6 1.6 0 0 0 .53-1.182c.041-1-.59-2.273-1.69-3.409a11 11 0 0 0-1.323-1.12l-1.665-1.247c-1.925-1.444-3.916-2.942-5.903-4.377-2.878-2.08-4.474-1.908-6.83.732a797 797 0 0 0-8.213 9.372 26 26 0 0 0-1.817 2.465c-1.306 1.924-.6 3.102.222 3.75"/></g><defs><clipPath id="a"><path fill="#fff" d="M.736.791H112.97v157.521H.736z"/></clipPath></defs></svg>
